X: 12
T: ROBERT SPENCER OF LANGTON HALL
C: Andrew Rankine 1981
R: reel
B: "The Complete Andrew Rankine Collection of Scottish Country Dance Tunes" p.15
Z: 2017 John Chambers <jc:trillian.mit.edu>
M: C
L: 1/8
K: A
e |\
"A"A2Ac "E7"BdcB | "A"cdcB "A7"Aaag |\
"D"f2fa "A"eccf | "F#m"ecBA "G"B3 e |\
"A"A2Ac "E"BdcB | "F#m"cdcB Aa"A"ag |
"D"f2fa "A"eccf | "E7"ecBc "A"A3 :|\
e |\
"A"a2af "A7"ecce | "D"fagf "A"ecce |\
"D"f2fa "A"eccf | "F#m"ecBA "G"B3 e |
"A"a2af ecce | "D"fagf "A"ecce |\
"D"f2fa "A"eccf | "E7"ecBc "A"A3 e |\
"A"a2af "A7"ecce | "D"fagf "A"ecce |
"D"f2fa "A"eccf | "F#m"ecBA "G"B3 e |\
"A"A2Ac "E"BdcB | "F#m"cdcB "A"Aaag |\
"D"f2fa "A"eccf | "E7"ecBc "A"A3 |]

%%sep 1 1 500

